svgs/sharp-regular/prescription-bottle.svg

<svg xmlns="http://www.w3.org/2000/svg" viewBox="0 0 384 512"><!--! Font Awesome Pro 6.6.0 by @fontawesome - https://fontawesome.com License - https://fontawesome.com/license (Commercial License) Copyright 2024 Fonticons, Inc. --><path d="M336 48l0 32L48 80l0-32 288 0zM48 0L0 0 0 48 0 80l0 48 48 0 288 0 48 0 0-48 0-32 0-48L336 0 48 0zM32 160l0 304 0 48 48 0 224 0 48 0 0-48 0-304-48 0 0 304L80 464l0-48 56 0 24 0 0-48-24 0-56 0 0-48 56 0 24 0 0-48-24 0-56 0 0-48 56 0 24 0 0-48-24 0-56 0 0-16-48 0z"/></svg>

<svg xmlns="http://www.w3.org/2000/svg" viewBox="0 0 384 512"><!--! Font Awesome Pro 6.5.2 by @fontawesome - https://fontawesome.com License - https://fontawesome.com/license (Commercial License) Copyright 2024 Fonticons, Inc. --><path d="M336 48V80H48V48H336zM48 0H0V48 80v48H48 336h48V80 48 0H336 48zM32 160V464v48H80 304h48V464 160H304V464H80V416h56 24V368H136 80V320h56 24V272H136 80V224h56 24V176H136 80V160H32z"/></svg>
